X: 31508
T: Paddy's
R: polka
M: 2/4
K: Edorian
|:BE ED/E/|FD FA|BE ED/E/|FE DF/A/|
BE ED/E/|FD FA|B>c BA|GF EF/A/:|
|:Be ed/e/|fe ed|Be ed/e/|fe d2|
Be ed/e/|fe ed|B>c BA|GF EF/A/:|

